X: 070723
T: Gardiner's Favorite
T: J.J. Gardiner's
T: Seamus Tansey's
S: "Collection of the Dance Music of Ireland" (P. McNulty)
Z: B.Black
L: 1/8
M: 4/4
R: reel
K: G
DF|:G2 DG EGDE|GABG AE (3EEE|G2 DG EGAB|cedc BcAF|
G2 DG EGDE|GABG AE (3EEE|G2 DG EGAB|cedc BG G2 :|
gd (3ddd edBG|BdBG AE (3EEE|gd (3ddd edBG|Bcdc BG G2|
gdfd edBG|BdBG AE (3EEE|c2 cB cdef|gedc BG G2 :|
